src/svgs/invoice.svg

<svg xmlns="http://www.w3.org/2000/svg" viewBox="0 0 24 24" width="512" height="512"><path d="M18 2H6a2 2 0 00-2 2v16a2 2 0 002 2h12a2 2 0 002-2V4a2 2 0 00-2-2zm-4 5H6V5h8zm4 0h-2V5h2zm-4 4H6V9h8zm4 0h-2V9h2zm-4 4H6v-2h8zm4 0h-2v-2h2zm0 4h-4v-2h4z"/></svg>

<svg xmlns="http://www.w3.org/2000/svg" viewBox="0 0 24 24"><path d="M18,2H6A2,2,0,0,0,4,4V20a2,2,0,0,0,2,2H18a2,2,0,0,0,2-2V4A2,2,0,0,0,18,2ZM14,7H6V5h8Zm4,0H16V5h2Zm-4,4H6V9h8Zm4,0H16V9h2Zm-4,4H6V13h8Zm4,0H16V13h2Zm0,4H14V17h4Z"/></svg>
